X:1
T:Title
%%score ( 1 2 ) { 3 | 4 }
L:1/8
Q:1/4=115
M:4/4
K:G
V:1 treble nm="Grand Piano, Soprano"
V:2 treble 
V:3 bass nm="Choir Pad, Edward Husband"
V:4 bass 
V:1
 [B,D]2 [B,G]2 [CF]4 | [CE]2 [A,D]2 D2- [B,D]2 | [DE]2 [CF]2 [B,G]2 G2 | [Ac]2 [GB]2 [GB]2 [FA]2 | %4
w: By~Edward~Husband * *||||
 [EA]2 [DA]2 d2- [Gd]2 | [Fc]2 [GB]2 [DA]4 | [Dc]2 [DG]2 [^CF]4 | [B,F]2 [^CE]2 [CE]2 D2 | %8
w: ||||
 D2 D2 E2- [CE]2 | [B,F]2 F-[DF] G2- [^CG]2 | [CA]2 [DA]2 B2 A2 | [Ec]2 [FB]2 [EA]2 [EG]2 | %12
w: ||||
 [^CF]2 [CE]2 =C2 B,2 | [DG]2 [DG]2 [EG]2 [DG]2 | [DF]4 [DG]4- | [DG]4 z4 |] %16
w: ||||
V:2
 x8 | z4 G,2 z2 | x8 | x8 | z4 D2 z2 | x8 | x8 | x8 | z4 D2 z2 | z2 .A,2 D2 z2 | z4 D4 | x8 | %12
 z4 D4 | x8 | x8 | x8 |] %16
V:3
 B,2 B,2 A,4 | F,2 F,2 G,4 | B,2 A,2 G,2[K:treble] E2 | ^D2 =D2 ^C2 D2 | E,2 F,2 G,2 B,2 | %5
 D2 D2 D4 | B,2 _B,2 A,4 | G,2 G,2 G,2 F,2 | G,2 G,2 G,2[K:treble] E2 | D2 C2 B,2 A,2 | %10
 G,2 F,2 G,2 A,2 | G,2 B,2 C2 B,2 | A,2 G,2 G,4 | B,2 B,2 C2 B,2 | A,2 C2 B,4- | B,4 z4 |] %16
V:4
 G,2 G,2 z4 | C,2 C,2 B,,4 | C,2 D,2 E,4 | F,2 G,2 D,2 D,2 | ^C,2 C,2 B,,2 z2 | A,2 G,2 F,4 | %6
 E,2 E,2 A,,4 | A,,2 A,,2 D,2 D,2 | B,,2 B,,2 C,4 | D,2 D,2 E,4 | D,2 D,2 z2 F,2 | %11
 E,2 ^D,2 E,2 E,2 | A,,2 A,,2 D,4 | D,2 D,2 D,2 D,2 | D,4 G,,4- | G,,4 z4 |] %16

